icons/svg/camera_12.svg

<?xml version="1.0" encoding="UTF-8"?>
<svg width="12px" height="12px" viewBox="0 0 12 12" version="1.1" xmlns="http://www.w3.org/2000/svg" xmlns:xlink="http://www.w3.org/1999/xlink">
    <!-- Generator: Sketch 59.1 (86144) - https://sketch.com -->
    <title>camera_12</title>
    <desc>Created with Sketch.</desc>
    <g id="Icons-Webex" stroke="none" stroke-width="1" fill="none" fill-rule="evenodd">
        <g id="activities/camera_12" fill="#171B1F">
            <path d="M1.4998,9.50003 C1.2238,9.50003 0.9998,9.27503 0.9998,9.00003 L0.9998,3.00003 C0.9998,2.72403 1.2238,2.50003 1.4998,2.50003 L7.5018,2.50003 C7.7778,2.50003 8.0018,2.72403 8.0018,3.00003 L8.0018,9.00003 C8.0018,9.27503 7.7778,9.50003 7.5018,9.50003 L1.4998,9.50003 Z M1.4998,1.50003 C0.6728,1.50003 -0.0002,2.17303 -0.0002,3.00003 L-0.0002,9.00003 C-0.0002,9.82703 0.6728,10.50003 1.4998,10.50003 L7.5018,10.50003 C8.3288,10.50003 9.0018,9.82703 9.0018,9.00003 L9.0018,7.67903 L10.5788,9.25503 C10.7378,9.41503 10.9498,9.49903 11.1668,9.49903 C11.2738,9.49903 11.3828,9.47903 11.4858,9.43603 C11.7988,9.30603 12.0008,9.00303 12.0008,8.66503 L12.0008,3.33203 C12.0008,2.99403 11.7998,2.69203 11.4868,2.56303 C11.3828,2.52003 11.2748,2.49903 11.1668,2.49903 C10.9508,2.49903 10.7378,2.58303 10.5788,2.74303 L9.0018,4.31903 L9.0018,3.00003 C9.0018,2.17303 8.3288,1.50003 7.5018,1.50003 L1.4998,1.50003 Z M11.0008,3.73403 L11.0008,8.26403 L9.7088,6.97203 L9.0018,6.26403 L9.0018,5.73403 L9.7088,5.02703 L11.0008,3.73403 L11.0008,3.73403 Z" id="fill"></path>
        </g>
    </g>
</svg>

<svg width="12" height="12" xmlns="http://www.w3.org/2000/svg"><path d="M1.5 9.5A.5.5 0 011 9V3a.5.5 0 01.5-.5h6.002a.5.5 0 01.5.5v6a.5.5 0 01-.5.5H1.5zm0-8C.673 1.5 0 2.173 0 3v6c0 .827.673 1.5 1.5 1.5h6.002c.827 0 1.5-.673 1.5-1.5V7.679l1.577 1.576a.826.826 0 00.907.181.833.833 0 00.515-.771V3.332a.828.828 0 00-.834-.833.828.828 0 00-.588.244L9.002 4.319V3c0-.827-.673-1.5-1.5-1.5H1.5zM11 3.734v4.53L9.71 6.972l-.707-.708v-.53l.707-.707L11 3.734z" fill="#171B1F" fill-rule="evenodd"/></svg>
